teeny/solid/adjust-vertical-alt.svg

<svg width="15" height="15" viewBox="0 0 15 15" fill="none" xmlns="http://www.w3.org/2000/svg">
<path d="M3 0L3 8.05001C1.85888 8.28164 1 9.29052 1 10.5C1 11.7095 1.85888 12.7184 3 12.95V15H4V12.95C5.14112 12.7184 6 11.7095 6 10.5C6 9.29052 5.14112 8.28164 4 8.05001L4 0H3Z" fill="black"/>
<path d="M11 0L11 2.05001C9.85888 2.28164 9 3.29052 9 4.5C9 5.70948 9.85888 6.71836 11 6.94999V15H12V6.94999C13.1411 6.71836 14 5.70948 14 4.5C14 3.29052 13.1411 2.28164 12 2.05001L12 0H11Z" fill="black"/>
</svg>

<svg viewBox="0 0 15 15" xmlns="http://www.w3.org/2000/svg"><g><path d="M3 0v8.05c-1.15.23-2 1.24-2 2.44s.85 2.21 2 2.45v2.05h1v-2.05c1.14-.24 2-1.25 2-2.45 0-1.21-.86-2.22-2-2.45V-.02H3Z"/><path d="M11 0v2.05c-1.15.23-2 1.24-2 2.44s.85 2.21 2 2.44v8.05h1V6.92c1.14-.24 2-1.25 2-2.45 0-1.21-.86-2.22-2-2.45V-.04h-1Z"/></g></svg>
